_public/resources/icons/theme.svg

<svg width="64" height="64" viewBox="0 0 64 64" fill="none" xmlns="http://www.w3.org/2000/svg">
<g clip-path="url(#clip0_1_11)">
<path d="M32 61C48.0163 61 61 48.0163 61 32C61 15.9837 48.0163 3 32 3M32 61C15.9837 61 3 48.0163 3 32C3 15.9837 15.9837 3 32 3M32 61V46.5M32 3V17.5M32 46.5C23.9919 46.5 17.5 40.0081 17.5 32C17.5 23.9919 23.9919 17.5 32 17.5M32 46.5V39.25M32 46.5H42.875M32 17.5V32V39.25M32 39.25H39.25" stroke="black" stroke-width="6" stroke-linecap="round" stroke-linejoin="round"/>
</g>
<defs>
<clipPath id="clip0_1_11">
<rect width="64" height="64" fill="white"/>
</clipPath>
</defs>
</svg>

<svg xmlns="http://www.w3.org/2000/svg" width="64" height="64" fill="none"><g clip-path="url(#a)"><path stroke="#000" stroke-linecap="round" stroke-linejoin="round" stroke-width="6" d="M32 61c16.016 0 29-12.984 29-29S48.016 3 32 3m0 58C15.984 61 3 48.016 3 32S15.984 3 32 3m0 58V46.5M32 3v14.5m0 29c-8.008 0-14.5-6.492-14.5-14.5S23.992 17.5 32 17.5m0 29v-7.25m0 7.25h10.875M32 17.5v21.75m0 0h7.25"/></g><defs><clipPath id="a"><path fill="#fff" d="M0 0h64v64H0z"/></clipPath></defs></svg>
